X:28
T:Bunch of Green Rushes
Z: id:dc-reel-28
M:C
L:1/8
K:D Dorian
B|cAGE F3A|c2cc AddB|cAGE F2de|fdec Add:|!
K:D Mixolydian
c|Add2 cAGE|=FGAB cAGc|Add2 cAA2|cdeg fdd^c|!
d2dd cAGE|=FGAB cAGc|Add2 cAA2|cdeg fdd|]!
^c|d2fd adfd|c2ec gcec|d2fd adfd|cAGc Add^c|!
d2fd adfd|AccB cdeg|a3g =f3e|dcAG Add|]!

